vue-project/src/assets/EPIDEX.svg

<svg width="1186" height="260" viewBox="0 0 1186 260" fill="none" xmlns="http://www.w3.org/2000/svg">
<path d="M0.689705 260V0.486091H167.52V44.9742H49.6266V106.887H157.14V151.375H49.6266V215.512H169.744V260H0.689705ZM205.969 260V0.486091H312.741C329.053 0.486091 343.388 3.8227 355.746 10.4959C368.351 16.922 378.113 26.0668 385.034 37.9302C392.201 49.7937 395.785 63.8816 395.785 80.1939V85.3842C395.785 101.449 392.078 115.537 384.663 127.648C377.496 139.511 367.609 148.78 355.004 155.453C342.647 161.879 328.559 165.092 312.741 165.092H254.906V260H205.969ZM254.906 120.604H307.921C319.537 120.604 328.929 117.391 336.097 110.965C343.264 104.539 346.848 95.7648 346.848 84.6427V80.9354C346.848 69.8134 343.264 61.0393 336.097 54.6133C328.929 48.1872 319.537 44.9742 307.921 44.9742H254.906V120.604ZM429.713 260V0.486091H478.65V260H429.713ZM520.051 260V216.995H554.158V43.4912H520.051V0.486091H626.822C661.671 0.486091 688.117 9.38371 706.159 27.179C724.449 44.727 733.593 70.9256 733.593 105.775V154.712C733.593 189.561 724.449 215.883 706.159 233.678C688.117 251.226 661.671 260 626.822 260H520.051ZM603.095 215.512H627.563C647.336 215.512 661.795 210.322 670.939 199.941C680.084 189.561 684.656 174.978 684.656 156.194V104.292C684.656 85.2606 680.084 70.6784 670.939 60.545C661.795 50.1645 647.336 44.9742 627.563 44.9742H603.095V215.512ZM774.38 260V0.486091H941.21V44.9742H823.317V106.887H930.83V151.375H823.317V215.512H943.435V260H774.38ZM963.347 260L1039.35 129.131L964.089 0.486091H1019.7L1071.23 94.2818H1077.9L1129.44 0.486091H1185.05L1109.79 129.131L1185.79 260H1130.18L1077.9 163.98H1071.23L1018.96 260H963.347Z" fill="white"/>
</svg>

<svg width="1186" height="260" fill="none" xmlns="http://www.w3.org/2000/svg"><path d="M.69 260V.486h166.83v44.488H49.627v61.913H157.14v44.488H49.627v64.137h120.117V260H.69zm205.279 0V.486h106.772c16.312 0 30.647 3.337 43.005 10.01 12.605 6.426 22.367 15.57 29.288 27.434 7.167 11.864 10.751 25.952 10.751 42.264v5.19c0 16.065-3.707 30.153-11.122 42.264-7.167 11.863-17.054 21.132-29.659 27.805-12.357 6.426-26.445 9.639-42.263 9.639h-57.835V260h-48.937zm48.937-139.396h53.015c11.616 0 21.008-3.213 28.176-9.639 7.167-6.426 10.751-15.2 10.751-26.322v-3.708c0-11.122-3.584-19.896-10.751-26.322-7.168-6.426-16.56-9.639-28.176-9.639h-53.015v75.63zM429.713 260V.486h48.937V260h-48.937zm90.338 0v-43.005h34.107V43.491h-34.107V.486h106.771c34.849 0 61.295 8.898 79.337 26.693 18.29 17.548 27.434 43.747 27.434 78.596v48.937c0 34.849-9.144 61.171-27.434 78.966C688.117 251.226 661.671 260 626.822 260H520.051zm83.044-44.488h24.468c19.773 0 34.232-5.19 43.376-15.571 9.145-10.38 13.717-24.963 13.717-43.747v-51.902c0-19.031-4.572-33.614-13.717-43.747-9.144-10.38-23.603-15.57-43.376-15.57h-24.468v170.537zM774.38 260V.486h166.83v44.488H823.317v61.913H930.83v44.488H823.317v64.137h120.118V260H774.38zm188.967 0 76.003-130.869L964.089.486h55.611l51.53 93.796h6.67L1129.44.486h55.61l-75.26 128.645 76 130.869h-55.61l-52.28-96.02h-6.67L1018.96 260h-55.613z" fill="#fff"/></svg>
